; generated by PrusaSlicer 2.5.0+win64 on 2023-07-13 at 12:00:26 UTC


;
;
; 

; external perimeters extrusion width = 0.65mm
; perimeters extrusion width = 0.65mm
; infill extrusion width = 0.65mm
; solid infill extrusion width = 0.65mm
; top infill extrusion width = 0.60mm
; first layer extrusion width = 0.65mm

M73 P0 R15
M73 Q0 S16
M201 X1000 Y1000 Z200 E5000 ; sets maximum accelerations, mm/sec^2
M203 X200 Y200 Z12 E120 ; sets maximum feedrates, mm / sec
M204 P1250 R1250 T1250 ; sets acceleration (P, T) and retract acceleration (R), mm/sec^2
M205 X8.00 Y8.00 Z0.40 E4.50 ; sets the jerk limits, mm/sec
M205 S0 T0 ; sets the minimum extruding and travel feed rate, mm/sec
M107
;TYPE:Custom
M862.3 P "MK3S" ; printer model check
M862.1 P0.6 ; nozzle diameter check
M115 U3.12.2 ; tell printer latest fw version
G90 ; use absolute coordinates
M83 ; extruder relative mode
M104 S215 ; set extruder temp
M140 S60 ; set bed temp
M190 S60 ; wait for bed temp
M109 S215 ; wait for extruder temp
G28 W ; home all without mesh bed level
G80 ; mesh bed leveling

G1 Z0.2 F720
G1 Y-3 F1000 ; go outside print area
G92 E0
G1 X60 E9 F1000 ; intro line
G1 X100 E12.5 F1000 ; intro line

G92 E0
M221 S95
G21 ; set units to millimeters
G90 ; use absolute coordinates
M83 ; use relative distances for extrusion
M900 K0.04 ; Filament gcode LA 1.5
M900 K18 ; Filament gcode LA 1.0
M107
;LAYER_CHANGE
;Z:0.2
;HEIGHT:0.2
;BEFORE_LAYER_CHANGE
G92 E0.0
;0.2


G1 E-.8 F2100
G1 Z.4 F720
;AFTER_LAYER_CHANGE
;0.2
G1 X96.027 Y91.712 F10800
G1 Z.2 F720
G1 E.8 F1500
M204 S800
;TYPE:Skirt/Brim
;WIDTH:0.65
G1 F1200
G1 X96.837 Y91.176 E.04905
G1 X97.359 Y90.929 E.02913
G1 X98.279 Y90.664 E.04834
G1 X99.32 Y90.597 E.05264
G1 X152.047 Y90.598 E2.66158
G1 X152.969 Y90.661 E.04665
M73 P1 R15
M73 Q1 S16
G1 X153.907 Y90.929 E.04924
G1 X154.428 Y91.176 E.02913
G1 X155.238 Y91.712 E.04904
G1 X156.059 Y92.586 E.06054
G1 X156.485 Y93.311 E.0424
G1 X156.748 Y93.962 E.03547
G1 X156.96 Y94.915 E.04929
G1 X156.967 Y119.894 E1.26092
G1 X156.694 Y121.109 E.06284
G1 X156.089 Y122.261 E.06567
G1 X155.238 Y123.179 E.06317
G1 X154.428 Y123.715 E.04904
G1 X153.907 Y123.962 E.02913
G1 X152.986 Y124.226 E.04833
G1 X151.946 Y124.294 E.05265
G1 X99.219 Y124.292 E2.66158
G1 X97.991 Y124.156 E.06236
M73 Q1 S15
G1 X96.837 Y123.715 E.06236
G1 X96.068 Y123.213 E.04635
G1 X95.462 Y122.611 E.04316
G1 X94.781 Y121.58 E.06235
G1 X94.518 Y120.928 E.03547
G1 X94.293 Y119.721 E.06199
G1 X94.299 Y94.996 E1.24808
G1 X94.572 Y93.782 E.06284
G1 X95.177 Y92.63 E.06568
G1 X95.966 Y91.778 E.05862
M204 S1000
; printing object DFR0478V4_holder upside down.obj id:0 copy 0
;WIPE_START
G1 F8640
G1 X96.837 Y91.176 E-.2446
G1 X97.359 Y90.929 E-.13323
G1 X98.279 Y90.664 E-.22112
G1 X98.975 Y90.619 E-.16106
;WIPE_END
G1 E-.04 F2100
G1 Z.6 F720
G1 X125.93 Y109.342 F10800
G1 Z.2 F720
G1 E.8 F1500
M204 S800
;TYPE:Perimeter
;WIDTH:0.649999
G1 F1200
G1 X126.003 Y109.281 E.00482
G1 X126.001 Y118.666 E.47375
G1 X126.183 Y119.213 E.02909
G1 X126.395 Y119.319 E.01195
G1 X106.918 Y119.315 E.98317
G1 X107.082 Y119.214 E.00973
G1 X107.265 Y118.667 E.02912
G1 X107.265 Y108 E.53843
G1 X108.565 Y106.682 E.09345
M73 P2 R15
M73 Q2 S15
G1 X109.325 Y105.88 E.05578
G1 X109.72 Y105.434 E.0301
G1 X110.702 Y104.144 E.0818
G1 X111.433 Y102.837 E.07561
G1 X111.893 Y101.44 E.07427
G1 X111.974 Y100.682 E.03844
G1 X112.019 Y100.001 E.03446
G1 X111.85 Y98.776 E.06243
G1 X111.746 Y98.396 E.01987
G1 X111.25 Y97.16 E.06724
G1 X110.52 Y95.954 E.07116
G1 X110.339 Y95.696 E.01592
G1 X110.092 Y95.568 E.01403
G1 X115.791 Y95.569 E.28767
;WIDTH:0.690897
G1 X116.15 Y95.59 E.01936
;WIDTH:0.731795
G1 X116.508 Y95.611 E.02059
;WIDTH:0.772693
G1 X116.867 Y95.631 E.02181
;WIDTH:0.809925
G1 X116.979 Y95.65 E.00725
;WIDTH:0.847156
G1 X117.091 Y95.668 E.0076
G1 X116.993 Y95.716 E.00735
;WIDTH:0.809925
G1 X116.894 Y95.764 E.00701
;WIDTH:0.772693
G1 X116.57 Y95.921 E.02181
;WIDTH:0.731795
G1 X116.246 Y96.077 E.02059
;WIDTH:0.690897
G1 X115.923 Y96.233 E.01936
;WIDTH:0.649999
G1 X115.717 Y96.352 E.012
G1 X114.863 Y97.007 E.05434
G1 X114.695 Y97.175 E.012
G1 X114.059 Y98.004 E.05271
G1 X113.921 Y98.235 E.01362
G1 X113.709 Y98.746 E.02793
G1 X113.447 Y99.459 E.03833
G1 X113.376 Y99.997 E.02738
G1 X113.307 Y100.764 E.03888
G1 X113.393 Y101.421 E.03343
G1 X113.509 Y102.061 E.03284
G1 X113.801 Y102.768 E.03863
G1 X114.037 Y103.259 E.02748
G1 X114.695 Y104.115 E.05451
G1 X114.863 Y104.283 E.01201
;WIDTH:0.691265
G1 X115.243 Y104.601 E.02672
;WIDTH:0.73253
G1 X115.623 Y104.919 E.02842
;WIDTH:0.780961
G1 X115.685 Y104.986 E.00556
;WIDTH:0.829391
G1 X115.747 Y105.052 E.00593
;WIDTH:0.877821
G1 X115.808 Y105.119 E.00629
;WIDTH:0.926251
G1 X115.87 Y105.185 E.00666
;WIDTH:0.932647
G1 X116.863 Y105.6 E.07963
G1 X116.932 Y105.596 E.00513
;WIDTH:0.88883
G1 X117.001 Y105.592 E.00487
;WIDTH:0.845012
G1 X117.071 Y105.588 E.00462
;WIDTH:0.801194
G1 X117.14 Y105.584 E.00437
;WIDTH:0.757376
G1 X117.388 Y105.599 E.01477
;WIDTH:0.721584
G1 X117.636 Y105.613 E.01403
;WIDTH:0.685792
G1 X117.884 Y105.628 E.01329
;WIDTH:0.649999
G1 X118.452 Y105.671 E.02873
G1 X119.022 Y105.596 E.02902
G1 X119.743 Y105.472 E.03694
G1 X120.241 Y105.265 E.02725
G1 X120.949 Y104.939 E.03933
G1 X121.564 Y104.467 E.03913
G1 X121.971 Y104.115 E.02715
G1 X122.338 Y103.636 E.03048
G1 X122.722 Y103.106 E.03306
G1 X122.923 Y102.625 E.0263
G1 X123.219 Y101.831 E.04274
G1 X123.359 Y100.764 E.05434
G1 X123.359 Y100.526 E.012
G1 X123.219 Y99.459 E.05434
G1 X123.157 Y99.23 E.012
G1 X122.745 Y98.235 E.05434
G1 X122.626 Y98.029 E.012
G1 X121.971 Y97.175 E.05434
G1 X121.803 Y97.007 E.012
G1 X120.949 Y96.352 E.05434
G1 X120.743 Y96.233 E.012
;WIDTH:0.684908
G1 X120.418 Y96.08 E.01918
;WIDTH:0.719817
G1 X120.093 Y95.926 E.02022
;WIDTH:0.754726
G1 X119.769 Y95.773 E.02126
;WIDTH:0.797401
G1 X119.65 Y95.719 E.00817
;WIDTH:0.840076
G1 X119.531 Y95.665 E.00863
G1 X119.665 Y95.644 E.00896
;WIDTH:0.797401
G1 X119.798 Y95.623 E.00848
;WIDTH:0.754726
G1 X120.157 Y95.605 E.02126
;WIDTH:0.719817
G1 X120.516 Y95.588 E.02022
;WIDTH:0.684908
G1 X120.875 Y95.571 E.01918
;WIDTH:0.649999
G1 X126.355 Y95.572 E.27663
G1 X126.183 Y95.677 E.0102
G1 X126.001 Y96.224 E.02908
G1 X126.002 Y99.276 E.15408
G1 X126.003 Y105.609 E.31967
G1 X125.909 Y105.51 E.00691
G1 X125.343 Y105.112 E.0349
G1 X124.673 Y104.875 E.03591
G1 X124.175 Y104.823 E.02528
G1 X123.564 Y104.878 E.03094
G1 X122.923 Y105.111 E.03446
G1 X122.599 Y105.321 E.01946
G1 X122.192 Y105.672 E.02715
G1 X121.799 Y106.235 E.03464
G1 X121.565 Y106.88 E.03464
G1 X121.501 Y107.502 E.03152
G1 X121.565 Y108.01 E.02588
G1 X121.66 Y108.319 E.01628
G1 X121.918 Y108.861 E.03034
G1 X122.277 Y109.315 E.02919
G1 X122.717 Y109.66 E.02823
G1 X123.055 Y109.834 E.0192
G1 X123.568 Y110.013 E.02741
G1 X124.252 Y110.071 E.03464
G1 X124.928 Y109.951 E.03467
G1 X125.554 Y109.656 E.03491
G1 X125.861 Y109.4 E.0202
M204 S1000
;WIPE_START
G1 F8640
G1 X126.003 Y109.281 E-.04281
G1 X126.003 Y112.387 E-.71719
;WIPE_END
G1 E-.04 F2100
G1 Z.6 F720
G1 X150.492 Y120.34 F10800
G1 Z.2 F720
G1 E.8 F1500
M204 S800
;TYPE:External perimeter
;WIDTH:0.741402
G1 F1200
G1 X150.41 Y120.235 E.0077
;WIDTH:0.721156
G1 X150.223 Y120.12 E.01239
;WIDTH:0.679204
G1 X149.66 Y120.12 E.02981
;WIDTH:0.672419
G1 X149.156 Y119.978 E.0274
;WIDTH:0.71238
G1 X149.022 Y119.943 E.00772
;WIDTH:0.75234
G1 X148.888 Y119.909 E.00818
;WIDTH:0.7923
G1 X148.754 Y119.874 E.00864
;WIDTH:0.83226
G1 X148.619 Y119.84 E.0091
G1 X126.912 Y119.839 E1.42477
;WIDTH:0.824439
G1 X126.716 Y119.861 E.01281
;WIDTH:0.780829
G1 X126.52 Y119.883 E.01206
;WIDTH:0.737219
G1 X126.325 Y119.904 E.01135
;WIDTH:0.693609
G1 X126.13 Y119.926 E.01063
;WIDTH:0.649999
G1 X107.132 Y119.922 E.95897
;WIDTH:0.693031
G1 X106.937 Y119.9 E.01061
;WIDTH:0.736062
G1 X106.742 Y119.879 E.01131
;WIDTH:0.779093
G1 X106.547 Y119.857 E.01202
;WIDTH:0.822124
G1 X106.352 Y119.836 E.01272
;WIDTH:0.826458
G1 X103.147 Y119.833 E.20879
;WIDTH:0.826562
G1 X103.139 Y119.833 E.00052
;WIDTH:0.828875
G1 X102.599 Y119.844 E.03531
G1 X102.476 Y119.878 E.00831
;WIDTH:0.7897
G1 X102.354 Y119.911 E.0079
;WIDTH:0.750525
G1 X102.231 Y119.945 E.00748
;WIDTH:0.71135
G1 X102.108 Y119.978 E.00707
;WIDTH:0.672175
G1 X101.606 Y120.12 E.02733
;WIDTH:0.679204
G1 X101.042 Y120.12 E.02981
;WIDTH:0.721156
G1 X100.855 Y120.235 E.01239
;WIDTH:0.741402
G1 X100.773 Y120.34 E.0077
G1 X100.835 Y120.15 E.01157
;WIDTH:0.710303
G1 X100.897 Y119.961 E.01106
;WIDTH:0.679204
G1 X100.955 Y119.485 E.02537
;WIDTH:0.651081
G1 X100.907 Y119.033 E.02297
;WIDTH:0.694909
G1 X100.84 Y118.792 E.01357
;WIDTH:0.738736
G1 X100.773 Y118.551 E.01448
G1 X100.856 Y118.654 E.00768
;WIDTH:0.718818
G1 X101.042 Y118.77 E.01231
;WIDTH:0.677541
G1 X101.604 Y118.77 E.02964
;WIDTH:0.673036
G1 X102.109 Y118.913 E.02751
;WIDTH:0.71284
G1 X102.242 Y118.948 E.00765
;WIDTH:0.752644
G1 X102.375 Y118.982 E.00811
;WIDTH:0.792448
G1 X102.508 Y119.016 E.00856
;WIDTH:0.832252
G1 X102.641 Y119.051 E.00902
G1 X103.148 Y119.049 E.03327
;WIDTH:0.826458
G1 X106.353 Y119.056 E.20879
;WIDTH:0.828028
G1 X106.422 Y119.053 E.0045
G1 X106.466 Y119.002 E.00439
;WIDTH:0.783521
G1 X106.509 Y118.951 E.00414
;WIDTH:0.739014
G1 X106.553 Y118.9 E.00389
;WIDTH:0.694507
G1 X106.597 Y118.849 E.00364
;WIDTH:0.649999
G1 X106.658 Y118.667 E.00971
G1 X106.658 Y107.751 E.551
G1 X108.133 Y106.256 E.10603
G1 X108.872 Y105.476 E.05425
G1 X109.239 Y105.063 E.02787
G1 X110.175 Y103.842 E.07767
G1 X110.86 Y102.638 E.06992
G1 X111.29 Y101.376 E.06731
G1 X111.418 Y100.084 E.06551
G1 X111.249 Y98.859 E.06243
G1 X111.108 Y98.431 E.02276
G1 X110.731 Y97.474 E.0519
G1 X110.001 Y96.268 E.07116
G1 X109.844 Y96.048 E.01365
;WIDTH:0.694019
G1 X109.783 Y95.994 E.00445
;WIDTH:0.738038
G1 X109.721 Y95.94 E.00475
;WIDTH:0.782058
G1 X109.659 Y95.886 E.00505
;WIDTH:0.826077
G1 X109.597 Y95.832 E.00535
;WIDTH:0.832239
G1 X102.574 Y95.845 E.46091
;WIDTH:0.826421
G1 X102.453 Y95.879 E.00818
;WIDTH:0.78776
G1 X102.332 Y95.912 E.00778
;WIDTH:0.749099
G1 X102.211 Y95.945 E.00737
;WIDTH:0.710438
G1 X102.09 Y95.978 E.00697
;WIDTH:0.671776
G1 X101.595 Y96.12 E.02689
;WIDTH:0.679204
G1 X101.042 Y96.12 E.02927
;WIDTH:0.721156
G1 X100.855 Y96.235 E.01239
;WIDTH:0.741402
G1 X100.773 Y96.34 E.0077
G1 X100.835 Y96.15 E.01157
;WIDTH:0.710303
G1 X100.897 Y95.961 E.01106
;WIDTH:0.679204
G1 X100.955 Y95.485 E.02537
;WIDTH:0.651082
G1 X100.907 Y95.033 E.02297
;WIDTH:0.694909
G1 X100.84 Y94.792 E.01357
;WIDTH:0.738735
G1 X100.773 Y94.551 E.01448
G1 X100.856 Y94.654 E.00768
;WIDTH:0.718817
G1 X101.042 Y94.77 E.01231
;WIDTH:0.677541
M73 P3 R15
G1 X101.606 Y94.77 E.02972
;WIDTH:0.678266
G1 X102.109 Y94.916 E.02768
;WIDTH:0.71676
G1 X102.243 Y94.949 E.00776
;WIDTH:0.755253
G1 X102.378 Y94.983 E.00821
;WIDTH:0.793746
G1 X102.512 Y95.017 E.00865
;WIDTH:0.832239
G1 X102.646 Y95.051 E.00909
G1 X109.596 Y95.049 E.45613
;WIDTH:0.826079
G1 X109.799 Y95.027 E.01331
;WIDTH:0.782059
M73 Q3 S15
G1 X110.001 Y95.005 E.01248
;WIDTH:0.738039
G1 X110.203 Y94.983 E.01174
;WIDTH:0.694019
G1 X110.405 Y94.961 E.01099
;WIDTH:0.649999
G1 X126.13 Y94.965 E.79379
;WIDTH:0.693538
G1 X126.326 Y94.987 E.01064
;WIDTH:0.737076
G1 X126.521 Y95.008 E.01135
;WIDTH:0.780615
G1 X126.716 Y95.03 E.01206
;WIDTH:0.824153
G1 X126.912 Y95.052 E.01277
;WIDTH:0.827155
G1 X148.126 Y95.058 E1.3834
;WIDTH:0.829477
G1 X148.663 Y95.047 E.03509
G1 X148.786 Y95.013 E.00836
;WIDTH:0.790218
G1 X148.91 Y94.98 E.00794
;WIDTH:0.750959
G1 X149.033 Y94.946 E.00753
;WIDTH:0.7117
G1 X149.156 Y94.913 E.00711
;WIDTH:0.67244
G1 X149.66 Y94.77 E.0274
;WIDTH:0.677542
G1 X150.223 Y94.77 E.02972
;WIDTH:0.718821
G1 X150.409 Y94.654 E.01231
;WIDTH:0.73874
G1 X150.492 Y94.551 E.00768
G1 X150.431 Y94.74 E.01153
;WIDTH:0.708141
G1 X150.37 Y94.93 E.01102
;WIDTH:0.677542
G1 X150.31 Y95.406 E.0253
;WIDTH:0.652311
G1 X150.358 Y95.857 E.02302
;WIDTH:0.696857
G1 X150.425 Y96.099 E.01361
;WIDTH:0.741402
G1 X150.492 Y96.34 E.01454
G1 X150.41 Y96.235 E.0077
;WIDTH:0.721156
G1 X150.223 Y96.12 E.01239
;WIDTH:0.679204
G1 X149.66 Y96.12 E.02981
;WIDTH:0.672455
G1 X149.156 Y95.978 E.0274
;WIDTH:0.71239
G1 X149.022 Y95.943 E.00772
;WIDTH:0.752324
G1 X148.888 Y95.909 E.00818
;WIDTH:0.792259
G1 X148.754 Y95.874 E.00864
;WIDTH:0.832193
G1 X148.619 Y95.84 E.0091
G1 X148.118 Y95.842 E.0329
;WIDTH:0.827073
G1 X126.912 Y95.833 E1.38273
;WIDTH:0.830073
G1 X126.843 Y95.836 E.00446
G1 X126.8 Y95.888 E.00442
;WIDTH:0.785055
G1 X126.756 Y95.939 E.00416
;WIDTH:0.740036
G1 X126.712 Y95.99 E.00391
;WIDTH:0.695018
G1 X126.668 Y96.042 E.00366
;WIDTH:0.649999
G1 X126.608 Y96.224 E.00969
G1 X126.609 Y99.276 E.15408
G1 X126.611 Y105.727 E.32561
;WIDTH:0.653509
G1 X126.66 Y106.956 E.06246
;WIDTH:0.653191
G1 X126.684 Y107.504 E.02782
;WIDTH:0.657043
G1 X126.611 Y108.945 E.07368
;WIDTH:0.649999
G1 X126.608 Y118.667 E.49076
G1 X126.669 Y118.849 E.0097
;WIDTH:0.693609
G1 X126.729 Y118.901 E.00433
;WIDTH:0.737219
G1 X126.79 Y118.953 E.00462
;WIDTH:0.780829
G1 X126.851 Y119.005 E.00491
;WIDTH:0.824438
G1 X126.912 Y119.058 E.0052
;WIDTH:0.83226
G1 X148.663 Y119.047 E1.42762
;WIDTH:0.829477
G1 X148.786 Y119.013 E.00837
;WIDTH:0.790209
G1 X148.91 Y118.98 E.00795
;WIDTH:0.750941
G1 X149.033 Y118.946 E.00753
;WIDTH:0.711673
G1 X149.156 Y118.913 E.00711
;WIDTH:0.672405
G1 X149.66 Y118.77 E.02739
;WIDTH:0.677543
G1 X150.223 Y118.77 E.02972
;WIDTH:0.718822
G1 X150.409 Y118.654 E.01231
;WIDTH:0.738742
G1 X150.492 Y118.551 E.00768
G1 X150.431 Y118.74 E.01153
;WIDTH:0.708143
G1 X150.37 Y118.93 E.01102
;WIDTH:0.677543
G1 X150.31 Y119.406 E.0253
;WIDTH:0.652311
G1 X150.358 Y119.857 E.02302
;WIDTH:0.696857
G1 X150.425 Y120.099 E.01361
;WIDTH:0.741402
G1 X150.468 Y120.253 E.00931
M204 S1000
;WIPE_START
G1 F8640
G1 X150.41 Y120.235 E-.01394
G1 X150.223 Y120.12 E-.05072
G1 X149.66 Y120.12 E-.13009
G1 X149.156 Y119.978 E-.12086
G1 X149.022 Y119.943 E-.032
G1 X148.888 Y119.909 E-.032
G1 X148.754 Y119.874 E-.032
G1 X148.619 Y119.84 E-.032
G1 X147.249 Y119.84 E-.31637
;WIPE_END
G1 E-.04 F2100
G1 Z.6 F720
G1 X117.319 Y104.94 F10800
G1 Z.2 F720
G1 E.8 F1500
M204 S800
;WIDTH:0.649999
G1 F1200
G1 X117.226 Y104.929 E.00473
G1 X116.155 Y104.497 E.0583
G1 X115.233 Y103.802 E.05829
G1 X114.481 Y102.823 E.06228
G1 X114.07 Y101.829 E.05434
G1 X113.908 Y100.685 E.0583
G1 X114.049 Y99.538 E.0583
G1 X114.481 Y98.467 E.0583
G1 X114.541 Y98.373 E.00562
G1 X115.232 Y97.489 E.05667
G1 X116.086 Y96.834 E.05434
G1 X117.226 Y96.361 E.06227
G1 X118.293 Y96.221 E.05434
G1 X119.44 Y96.361 E.0583
G1 X120.579 Y96.834 E.06227
G1 X121.433 Y97.489 E.05434
G1 X122.145 Y98.399 E.0583
G1 X122.617 Y99.538 E.06227
G1 X122.757 Y100.606 E.05434
G1 X122.617 Y101.752 E.0583
G1 X122.145 Y102.891 E.06221
G1 X121.489 Y103.746 E.0544
G1 X120.579 Y104.457 E.0583
G1 X119.514 Y104.909 E.05841
G1 X118.372 Y105.07 E.0582
G1 X117.408 Y104.951 E.04903
M204 S1000
G1 X117.266 Y105.018 F10800
;WIPE_START
G1 F8640
G1 X117.226 Y104.929 E-.04243
G1 X116.155 Y104.497 E-.2667
G1 X115.233 Y103.802 E-.26665
G1 X114.747 Y103.169 E-.18422
;WIPE_END
G1 E-.04 F2100
G1 Z.6 F720
G1 X117.091 Y95.668 F10800
G1 Z.2 F720
G1 E.8 F1500
M204 S800
;TYPE:Perimeter
;WIDTH:0.847156
G1 F1200
G1 X117.134 Y95.665 E.00287
;WIDTH:0.840616
G1 X117.493 Y95.642 E.02385
;WIDTH:0.7935
G1 X117.852 Y95.618 E.02244
;WIDTH:0.746383
G1 X118.211 Y95.595 E.02103
;WIDTH:0.699266
G1 X118.455 Y95.595 E.01332
;WIDTH:0.746167
G1 X118.814 Y95.618 E.02103
;WIDTH:0.793122
G1 X119.172 Y95.642 E.02243
;WIDTH:0.840076
G1 X119.531 Y95.665 E.02383
M204 S1000
;WIPE_START
G1 F8640
G1 X119.172 Y95.642 E-.08303
G1 X118.814 Y95.618 E-.08303
G1 X118.455 Y95.595 E-.08303
G1 X118.211 Y95.595 E-.05637
G1 X117.852 Y95.618 E-.08303
G1 X117.493 Y95.642 E-.08303
G1 X117.134 Y95.665 E-.08303
G1 X117.091 Y95.668 E-.00992
;WIPE_END
G1 E-.23554 F2100
G1 Z.6 F720
G1 X125.476 Y108.946 F10800
G1 Z.2 F720
G1 E.8 F1500
M204 S800
;TYPE:External perimeter
;WIDTH:0.649999
G1 F1200
G1 X125.111 Y109.218 E.023
G1 X124.618 Y109.411 E.02669
G1 X124.093 Y109.47 E.02668
M73 P4 R15
G1 X123.582 Y109.395 E.02607
G1 X123.094 Y109.185 E.02681
G1 X122.687 Y108.866 E.0261
